styles/4/Numix/32/places/pink-folder-open.svg

<?xml version="1.0" encoding="UTF-8" standalone="no"?>
<!-- Created with Inkscape (http://www.inkscape.org/) -->

<svg
   xmlns:dc="http://purl.org/dc/elements/1.1/"
   xmlns:cc="http://creativecommons.org/ns#"
   xmlns:rdf="http://www.w3.org/1999/02/22-rdf-syntax-ns#"
   xmlns:svg="http://www.w3.org/2000/svg"
   xmlns="http://www.w3.org/2000/svg"
   xmlns:sodipodi="http://sodipodi.sourceforge.net/DTD/sodipodi-0.dtd"
   xmlns:inkscape="http://www.inkscape.org/namespaces/inkscape"
   width="32"
   height="32"
   id="svg2"
   version="1.1"
   inkscape:version="0.91 r"
   sodipodi:docname="pink-folder-open.svg"
   inkscape:export-filename="/media/Data/Main/Visuals/Icons/Numix/Desktop/repos/numix-wiki/Gjorgi/Numix-folders/48/New/folder-144.png"
   inkscape:export-xdpi="270"
   inkscape:export-ydpi="270">
  <defs
     id="defs4" />
  <sodipodi:namedview
     id="base"
     pagecolor="#ffffff"
     bordercolor="#666666"
     borderopacity="1.0"
     inkscape:pageopacity="0.0"
     inkscape:pageshadow="2"
     inkscape:zoom="11.624331"
     inkscape:cx="-10.792269"
     inkscape:cy="24.722532"
     inkscape:document-units="px"
     inkscape:current-layer="layer1"
     showgrid="false"
     inkscape:window-width="1920"
     inkscape:window-height="1023"
     inkscape:window-x="0"
     inkscape:window-y="28"
     inkscape:window-maximized="1"
     showguides="true"
     inkscape:guide-bbox="true">
    <inkscape:grid
       type="xygrid"
       id="grid2985"
       empspacing="5"
       visible="true"
       enabled="true"
       snapvisiblegridlinesonly="true" />
  </sodipodi:namedview>
  <metadata
     id="metadata7">
    <rdf:RDF>
      <cc:Work
         rdf:about="">
        <dc:format>image/svg+xml</dc:format>
        <dc:type
           rdf:resource="http://purl.org/dc/dcmitype/StillImage" />
        <dc:title />
      </cc:Work>
    </rdf:RDF>
  </metadata>
  <g
     inkscape:label="Layer 1"
     inkscape:groupmode="layer"
     id="layer1"
     transform="translate(0,-1020.3622)">
    <path
       style="fill:#ec407a;fill-opacity:1;stroke:none"
       d="m 28,1038.8621 -23.5,0 c -1,0 -1.5,-0.4999 -1.5,-1.4996 l 0,-11.0003 c 0,-0.6169 0.4114831,-1 1,-1 l 24,0 c 0.5263,0 1,0.4459 1,0.9997 l 0,12.4988 z"
       id="path3811"
       inkscape:connector-curvature="0"
       sodipodi:nodetypes="csssssscc" />
    <rect
       style="fill:#f06292;fill-opacity:1;stroke:none"
       id="rect2990"
       width="30"
       height="15"
       x="1"
       y="1034.3622"
       rx="2"
       ry="2" />
    <path
       style="fill:#ffffff;fill-opacity:1;stroke:none;opacity:0.1"
       d="M 3 14 C 1.892 14 1 14.892 1 16 L 1 18 C 1 16.892 1.892 16 3 16 L 29 16 C 30.108 16 31 16.892 31 18 L 31 16 C 31 14.892 30.108 14 29 14 L 3 14 z "
       transform="translate(0,1020.3622)"
       id="rect2991" />
    <path
       style="fill:#000000;fill-opacity:1;stroke:none;opacity:0.05"
       d="M 4 5 C 3.4114831 5 3 5.3831 3 6 L 3 8 C 3 7.3831 3.4114831 7 4 7 L 28 7 C 28.5263 7 29 7.4462 29 8 L 29 6 C 29 5.4462 28.5263 5 28 5 L 4 5 z "
       transform="translate(0,1020.3622)"
       id="path3764" />
  </g>
</svg>

<!-- Created with Inkscape (http://www.inkscape.org/) -->
<svg xmlns="http://www.w3.org/2000/svg" viewBox="0 0 32 32">
 <g transform="translate(0,-1020.3622)">
  <path d="m 28 1038.86 -23.5 0 c -1 0 -1.5 -0.5 -1.5 -1.5 l 0 -11 c 0 -0.617 0.411 -1 1 -1 l 24 0 c 0.526 0 1 0.446 1 1 l 0 12.499 z" style="fill:#ec407a;fill-opacity:1;stroke:none"/>
  <rect width="30" height="15" x="1" y="1034.36" rx="2" style="fill:#f06292;fill-opacity:1;stroke:none"/>
  <path d="m 3 14 c -1.108 0 -2 0.892 -2 2 l 0 2 c 0 -1.108 0.892 -2 2 -2 l 26 0 c 1.108 0 2 0.892 2 2 l 0 -2 c 0 -1.108 -0.892 -2 -2 -2 l -26 0 z" transform="translate(0,1020.3622)" style="fill:#fff;opacity:0.1;fill-opacity:1;stroke:none"/>
  <path d="m 4 5 c -0.589 0 -1 0.383 -1 1 l 0 2 c 0 -0.617 0.411 -1 1 -1 l 24 0 c 0.526 0 1 0.446 1 1 l 0 -2 c 0 -0.554 -0.474 -1 -1 -1 l -24 0 z" transform="translate(0,1020.3622)" style="fill:#000;opacity:0.05;fill-opacity:1;stroke:none"/>
 </g>
</svg>
